svgs/light/rectangle-barcode.svg

<svg xmlns="http://www.w3.org/2000/svg" viewBox="0 0 576 512"><!--! Font Awesome Pro 6.5.1 by @fontawesome - https://fontawesome.com License - https://fontawesome.com/license (Commercial License) Copyright 2023 Fonticons, Inc. --><path d="M64 64C46.3 64 32 78.3 32 96V416c0 17.7 14.3 32 32 32H512c17.7 0 32-14.3 32-32V96c0-17.7-14.3-32-32-32H64zM0 96C0 60.7 28.7 32 64 32H512c35.3 0 64 28.7 64 64V416c0 35.3-28.7 64-64 64H64c-35.3 0-64-28.7-64-64V96zm96 48c0-8.8 7.2-16 16-16s16 7.2 16 16V368c0 8.8-7.2 16-16 16s-16-7.2-16-16V144zm288 0c0-8.8 7.2-16 16-16s16 7.2 16 16V368c0 8.8-7.2 16-16 16s-16-7.2-16-16V144zm80-16c8.8 0 16 7.2 16 16V368c0 8.8-7.2 16-16 16s-16-7.2-16-16V144c0-8.8 7.2-16 16-16zM160 144c0-8.8 7.2-16 16-16s16 7.2 16 16V368c0 8.8-7.2 16-16 16s-16-7.2-16-16V144zm80-16c8.8 0 16 7.2 16 16V368c0 8.8-7.2 16-16 16s-16-7.2-16-16V144c0-8.8 7.2-16 16-16zm64 16c0-8.8 7.2-16 16-16s16 7.2 16 16V368c0 8.8-7.2 16-16 16s-16-7.2-16-16V144z"/></svg>

<svg xmlns="http://www.w3.org/2000/svg" viewBox="0 0 576 512"><!--! Font Awesome Pro 6.1.1 by @fontawesome - https://fontawesome.com License - https://fontawesome.com/license (Commercial License) Copyright 2022 Fonticons, Inc. --><path d="M96 144C96 135.2 103.2 128 112 128C120.8 128 128 135.2 128 144V368C128 376.8 120.8 384 112 384C103.2 384 96 376.8 96 368V144zM384 144C384 135.2 391.2 128 400 128C408.8 128 416 135.2 416 144V368C416 376.8 408.8 384 400 384C391.2 384 384 376.8 384 368V144zM480 144V368C480 376.8 472.8 384 464 384C455.2 384 448 376.8 448 368V144C448 135.2 455.2 128 464 128C472.8 128 480 135.2 480 144zM160 144C160 135.2 167.2 128 176 128C184.8 128 192 135.2 192 144V368C192 376.8 184.8 384 176 384C167.2 384 160 376.8 160 368V144zM256 144V368C256 376.8 248.8 384 240 384C231.2 384 224 376.8 224 368V144C224 135.2 231.2 128 240 128C248.8 128 256 135.2 256 144zM304 144C304 135.2 311.2 128 320 128C328.8 128 336 135.2 336 144V368C336 376.8 328.8 384 320 384C311.2 384 304 376.8 304 368V144zM0 96C0 60.65 28.65 32 64 32H512C547.3 32 576 60.65 576 96V416C576 451.3 547.3 480 512 480H64C28.65 480 0 451.3 0 416V96zM32 96V416C32 433.7 46.33 448 64 448H512C529.7 448 544 433.7 544 416V96C544 78.33 529.7 64 512 64H64C46.33 64 32 78.33 32 96z"/></svg>
